X:170
T:Curlews, The
M:C|
L:1/8
Q:120
C:Josephine Keegan
R:Reel (Key of Bdor)
K:Bdor
"Bm"fB~B2 Bcde | fece ~a3e | "A"faed cA~A2 | ^GAce a^gba |
"Bm"fB~B2 Bcde | fece ~a3f | "G"~=g3e ~f3e | "F#m"dBBA FB~B2 :|:
"Bm"Bdcd BF~F2 | DF~F2 Bcdf | "A"ecBc AE~E2 | "F#m"CEAB cedc |
"Bm"Bdcd BF~F2 | DF~F2 Bcdf | "A"ecBA fcec | "Bm"dcBA FB~B2 :|]
